!!!COM: Vivaldi, Antonio
!!!OTL: Concerto a violino solo, No. 9
!!!XEN: Violin Concerto No. 9 in D minor
!!!OPR: Il Cimento dell'armonia e dell'inventione
!!!XEN: The Contest of Harmony and Invention
!!!OPS: Opus 8
!!!ONM: No. 9
!!!OMV: Movement 2.
!!!YEC: Copyright 1996, Center for Computer Assisted Research in the Humanities
!!!YEM: Rights to all derivative electronic formats reserved.
!!!YEM: Refer to licensing agreement for important restrictions.
!!!OMD: Largo
**kern	**kern	**kern	**Bnum
*Icello	*Ivioln	*Ioboe	*Icemba
*Icemba	*	*	*
*ICstr	*ICstr	*ICww	*ICklav
*ICklav	*	*	*
!cello	!violino principale	!oboe	!continuo
*clefF4	*clefG2	*clefG2	*
*k[b-]	*k[b-]	*k[b-]	*k[b-]
*d:	*d:	*d:	*d:
*M4/4	*M4/4	*M4/4	*M4/4
*>Selfridge-Field[S1,etc1]	*>Selfridge-Field[S1,etc1]	*>Selfridge-Field[S1,etc1]	*>Selfridge-Field[S1,etc1]
*>Amsterdam[A1,etc1]	*>Amsterdam[A1,etc1]	*>Amsterdam[A1,etc1]	*>Amsterdam[A1,etc1]
*>S1	*>S1	*>S1	*>S1
!! Selfridge-Field edition.
=1-	=1-	=1-	=1-
8D\L	1dd\	1dd\	.
8D\	.	.	.
8E\	.	.	7
8E\J	.	.	.
8F\L	.	.	6
8F\	.	.	.
8G\	.	.	6 5
8G\J	.	.	.
=2	=2	=2	=2
8A\L	8cc#\L	8cc#\L	#
8A\	16dd\L	16dd\L	.
.	16ee\JJ	16ee\JJ	.
8C#\	8a/L	8a/L	.
8AA\J	8g/J	8g/J	.
8D\L	8.fT/L	8.fT/L	.
8E\	.	.	.
.	16e/Jk	16e/Jk	.
8F\	4d/	4d/	6
8D\J	.	.	.
=3	=3	=3	=3
8F\L	1ff\	1ff\	.
8F\	.	.	.
8G\	.	.	7
8G\J	.	.	.
8A\L	.	.	6
8A\	.	.	.
8B-\	.	.	6 5
8B-\J	.	.	.
*>A1	*>A1	*>A1	*>A1
!! Amsterdam print.
=1-	=1-	=1-	=1-
8D\L	[2dd\	[2dd\	.
8D\	.	.	.
8E\	.	.	7
8E\J	.	.	.
8F\L	2dd\]	2dd\]	6
8F\	.	.	.
8G\	.	.	6 5
8G\J	.	.	.
=2	=2	=2	=2
8A\L	8cc#\L	8cc#\L	#
8A\	16dd\L	16dd\L	.
.	16ee\JJ	16ee\JJ	.
8C#\	8a/L	8a/L	.
8AA\J	8g/J	8g/J	.
8D\L	8.fT/L	8.fT/L	.
8E\	.	.	.
.	16e/Jk	16e/Jk	.
8F\	4d/	4d/	6
8D\J	.	.	.
=3	=3	=3	=3
8F\L	[2ff\	[2ff\	.
8F\	.	.	.
8G\	.	.	7
8G\J	.	.	.
8A\L	2ff\]	2ff\]	6
8A\	.	.	.
8B-\	.	.	6 5
8B-\J	.	.	.
*>etc1	*>etc1	*>etc1	*>etc1
=4	=4	=4	=4
8c\L	8ee\L	8ee\L	.
8c\	16ff\L	16ff\L	.
.	16gg\JJ	16gg\JJ	.
8E\	8cc\L	8cc\L	6
8C\J	8b-\J	8b-\J	.
8F\L	8.at/L	8.at/L	.
8G\	.	.	.
.	16g/Jk	16g/Jk	.
8A\	8f\L	8f\L	6
8F\J	8ff\J	8ff\J	.
=5	=5	=5	=5
8G\L	(24bb-\LL	(24bb-\LL	.
.	24aa\	24aa\	.
.	24bb-\JJ)	24bb-\JJ)	.
8E\	(24gg\LL	(24gg\LL	.
.	24ff\	24ff\	.
.	24gg\JJ)	24gg\JJ)	.
8C\	8ee\L	8ee\L	.
8E\J	8bb-\J	8bb-\J	.
8F\L	8bb-T\L	8bb-T\L	.
8G\	8aa\J	8aa\J	.
8A\	8r	8r	6
8F\J	8aa\	8aa\	.
=6	=6	=6	=6
8E/L	(24gg\LL	(24gg\LL	.
.	24ff\	24ff\	.
.	24gg\JJ)	24gg\JJ)	.
8C#/	(24ee\LL	(24ee\LL	.
.	24dd\	24dd\	.
.	24ee\JJ)	24ee\JJ)	.
8AA/	8cc#\L	8cc#\L	.
8C#/J	8gg\J	8gg\J	.
8D\L	8ggT\L	8ggT\L	.
8E\	8ff\J	8ff\J	.
8F\	8r	8r	6
8D\J	8ff\	8ff\	.
=7	=7	=7	=7
4E\	8g#\L	8g#\L	.
.	8ff\J	8ff\J	.
4GG#/	(16ee\LL	(16ee\LL	6 5
.	16dd\)	16dd\)	.
.	(16cc\	(16cc\	.
.	16bn\JJ)	16bn\JJ)	.
4AA/	8cc\L	8cc\L	.
.	16b\L	16b\L	.
.	16a\JJ	16a\JJ	.
4E\	4bt\	4bt\	#
=8	=8	=8	=8
8A\L	4a/	4a/	.
8A\	.	.	.
8Bn\	4r	4r	6\
8B\J	.	.	.
8c\L	(4ee\	(4ee\	6
8c\	.	.	.
8d\	4ff\)	4ff\)	6 5
8d\J	.	.	.
=9	=9	=9	=9
8e\L	8g#/L	8g#/L	#
8e\	16f#/L	16f#/L	.
.	16e/JJ	16e/JJ	.
8E\	(16g#\LL	(16g#\LL	#
.	16bn\	16bn\	.
8E\J	16dd\	16dd\	.
.	16ee\JJ)	16ee\JJ)	.
8A\L	(8cc#\L	(8cc#\L	#
8A\	16b\L	16b\L	.
.	16a\JJ)	16a\JJ)	.
8AA\	(16gn\LL	(16gn\LL	.
.	16cc#\	16cc#\	.
8AA\J	16ee\)	16ee\)	.
.	16g\JJ	16g\JJ	.
=10	=10	=10	=10
8D\L	16f/LL	16f/LL	.
.	16e/J	16e/J	.
8D\	8d/J	8d/J	.
8E\	4r	4r	6\
8E\J	.	.	#
8F\L	(4aa\	(4aa\	6
8F\	.	.	.
8G\	4bb-\)	4bb-\)	6 5
8G\J	.	.	.
=11	=11	=11	=11
8A\L	8cc#\L	8cc#\L	#
8A\	16bn\L	16bn\L	.
.	16a\JJ	16a\JJ	.
8AA\	(16cc#\LL	(16cc#\LL	#
.	16ee\	16ee\	.
8AA\J	16gg\	16gg\	.
.	16aa\JJ)	16aa\JJ)	.
8D/L	(8ff#\L	(8ff#\L	#
8D/	16ee\L	16ee\L	.
.	16dd\JJ)	16dd\JJ)	.
8DD/	(16ccn\LL	(16ccn\LL	.
.	16ff#\	16ff#\	.
8DD/J	16aa\)	16aa\)	.
.	16cc\JJ	16cc\JJ	.
=12	=12	=12	=12
8G\L	16b-/LL	16b-/LL	.
.	16a/J	16a/J	.
8A\	8g/J	8g/J	.
8B-\	[4gg\	[4gg\	6
8G\J	.	.	.
8C#\L	8gg\L]	8gg\L]	6 5
8c#\	16ff\L	16ff\L	.
.	16ee\JJ	16ee\JJ	.
8d\	8ff\L	8ff\L	.
8G#\J	16ee\L	16ee\L	6 5
.	16dd\JJ	16dd\JJ	.
=13	=13	=13	=13
8A\L	8cc#\L	8cc#\L	#
8D\J	8a\J	8a\J	.
8r	[4b-\	[4b-\	.
16G\LL	.	.	.
16F\JJ	.	.	.
4.E\	8b-\L]	8b-\L]	.
*	*strophe	*	*
*	*^	*	*
*	*S/S	*S/A	*	*
.	16ccn\L	16cc#\L	16ccn\L	.
*	*S/fin	*S/fin	*	*
*	*v	*v	*	*
*	*S-	*	*
.	16b-\JJ	16b-\JJ	.
.	[4a/	[4a/	.
16F\LL	.	.	.
16E\JJ	.	.	.
=14	=14	=14	=14
4.D\	8a/L]	8a/L]	.
.	16b-/L	16b-/L	.
.	16a/JJ	16a/JJ	.
.	[4g/	[4g/	.
16E\LL	.	.	.
16D\JJ	.	.	.
4.C#/	8g\L]	8g\L]	.
.	(16ee\L	(16ee\L	.
.	16dd\JJ)	16dd\JJ)	.
.	(16cc#/LL	(16cc#/LL	.
.	16bn/)	16bn/)	.
8C#/	(16a/	(16a/	.
.	16g/JJ)	16g/JJ)	.
=15	=15	=15	=15
8D\L	8f/L	8f/L	.
8E\	8d/J	8d/J	.
8F\	8r	8r	6
8C#\J	8ee\	8ee\	6
8D\L	8ff\L	8ff\L	.
8G\	16ee\L	16ee\L	.
.	16dd\JJ	16dd\JJ	.
8A\	8.cc#t\L	8.cc#t\L	4
8AA\J	.	.	#
.	16dd\Jk	16dd\Jk	.
=16	=16	=16	=16
8D\L	[2dd\	[2dd\	.
8D\	.	.	.
8E\	.	.	.
8E\J	.	.	.
8F\L	4dd\]	4dd\]	.
8F\	.	.	.
8G\	8ee-\L	8ee-\L	.
8G\J	8gg\J	8gg\J	.
=17	=17	=17	=17
4A\	8cc#\L	8cc#\L	#
.	16bn\L	16bn\L	.
.	16a\JJ	16a\JJ	.
8r	[4ff\	[4ff\	.
8D\	.	.	.
4GG#/	8ff\L]	8ff\L]	6 5
.	16ee\L	16ee\L	.
.	16dd\JJ	16dd\JJ	.
4AA/	8.cc#t\L	8.cc#t\L	#
.	16dd\Jk	16dd\Jk	.
=18	=18	=18	=18
1D;\	1dd;\	1dd;\	.
==|!	==|!	==|!	==|!
*-	*-	*-	*-
!!!CDT: 1678/3/4/-1741/7/28
!!!OCY: Italia
!!!ODE: Count Wenzeslaus von Morzin of Bohemia; Count Wenceslas of Morzin
!!!ODT: 1725///
!!!OPC: Venezia; Venice
!!!AGN: concerto
!!!AST: baroque
!!!AMT: simple quadruple
!!!PPR: Michel-Charles Le Ce`ne
!!!PC#: Le Cene No. 521
!!!PDT: 1725///
!!!PPP: Amsterdam
!!!SCT: RV 236
!!!SMA1: The cooperation of the following libraries is gratefully acknowledged:
!!!SMA2: Saechsische Landesbibliothek, Dresden; Biblioteca Nazionale
!!!SMA3: Universitaria, Turin; Henry Watson Music Library, Manchester.
!!!YOR: New York: Dover Publications, Inc. 1995
!!!AIN: cello cemba violn
!!!EEV: 1.0
!!!RDT: 1994/5/4/
!!!YER: 1996/10/31/
!!!YEP: Center for Computer Assisted Research in the Humanities
!!!YEN: United States of America
!!!EFL: 2/3
!!!ENC: Edmund Correia, Jr.
!!!EED: Eleanor Selfridge-Field
